X: 349
T:Cueurs desolez
N: Derived from Jos2808-Cueurs_desolez.krn
C: Josquin des Prez
%%abc-version 2.0
%%abcx-abcm2ps-target-version 5.9.1 (29 Sep 2008)
%%abc-creator hum2abc beta
%%abcx-conversion-date 2019/02/12 16:15:54
%%abc-edited-by Jesse Rodin
%%abc-edited-by Will Watson 23/10/11
%%abcx-initial-encoding-date 2011/10/11/
%%humdrum-veritas 557342708
%%humdrum-veritas-data 948886808
%%linebreak <none>
%%barnumbers 0
L: 1/4
M: 2/1
Q: 1/2=120
%%staves [1 2 3 4]
V: 1 clef=treble
V: 2 clef=treble-8
V: 3 clef=treble-8
V: 4 clef=bass
K: C
[V:1] z8 | 
[V:2] B8 | 
[V:3] z8 | 
[V:4] z8 | 
[V:1] z8 | 
[V:2] c4c4 | 
[V:3] z8 | 
[V:4] z8 | 
[V:1] z8 | 
[V:2] B4z2G2 | 
[V:3] E8 | 
[V:4] z8 | 
[V:1] z8 | 
[V:2] A4A4 | 
[V:3] F4F4 | 
[V:4] z8 | 
[V:1] E8 | 
[V:2] GFEDC2E2 | 
[V:3] E4z2G2 | 
[V:4] z8 | 
[V:1] F4F4 | 
[V:2] D8 | 
[V:3] A4A4 | 
[V:4] z8 | 
[V:1] E4z2G2 | 
[V:2] B3AB2c2- | 
[V:3] G8 | 
[V:4] E,8 | 
[V:1] A4A4 | 
[V:2] cAA3Bcd | 
[V:3] c6A2 | 
[V:4] F,4F,4 | 
[V:1] G4G4 | 
[V:2] e8 | 
[V:3] B2c2B4 | 
[V:4] E,4z2E,2 | 
[V:1] c6B2 | 
[V:2] z2e2e2e2 | 
[V:3] A4z4 | 
[V:4] A,6G,2 | 
[V:1] A4A4 | 
[V:2] f2e3cd2 | 
[V:3] z8 | 
[V:4] F,4F,4 | 
[V:1] G8- | 
[V:2] e8- | 
[V:3] B8 | 
[V:4] E,8 | 
[V:1] G8 | 
[V:2] e8 | 
[V:3] c4c4 | 
[V:4] z2C,2C,2C,2 | 
[V:1] z8 | 
[V:2] E8 | 
[V:3] B4z2G2 | 
[V:4] G,6F,E, | 
[V:1] z8 | 
[V:2] F4F4 | 
[V:3] A4A4 | 
[V:4] D,8 | 
[V:1] E8 | 
[V:2] E4z2G2 | 
[V:3] GFEDC2E2 | 
[V:4] z8 | 
[V:1] F4F4 | 
[V:2] A4A4 | 
[V:3] D8 | 
[V:4] z8 | 
[V:1] E4z2G2 | 
[V:2] G3AB2c2- | 
[V:3] z4G4 | 
[V:4] E,8 | 
[V:1] A4A4 | 
[V:2] cAA3Bcd | 
[V:3] c6A2 | 
[V:4] F,4F,4 | 
[V:1] G4G4 | 
[V:2] e8 | 
[V:3] B2c2B4 | 
[V:4] E,4z2E,2 | 
[V:1] c6B2 | 
[V:2] z2e2e2e2 | 
[V:3] A4z2B2 | 
[V:4] A,6G,2 | 
[V:1] A6GF | 
[V:2] f2e3cd2 | 
[V:3] c6A2 | 
[V:4] F,4F,4 | 
[V:1] G2A4^G2 | 
[V:2] e8 | 
[V:3] B2c2B4 | 
[V:4] E,8 | 
[V:1] A8 | 
[V:2] z2E2E2E2 | 
[V:3] A4z2A2 | 
[V:4] A,,8 | 
[V:1] z8 | 
[V:2] F6E2 | 
[V:3] A2A2B2A2- | 
[V:4] D,6C,2 | 
[V:1] z4B4 | 
[V:2] E2DCD4 | 
[V:3] A2^G^F^G3^F | 
[V:4] B,,4B,,4 | 
[V:1] c3BA2G2 | 
[V:2] E2e2f3e | 
[V:3] A4z4 | 
[V:4] A,,4z4 | 
[V:1] F2E2DEFE | 
[V:2] d2c2B2A2- | 
[V:3] z8 | 
[V:4] z8 | 
[V:1] FGA4^G2 | 
[V:2] AGc2B4 | 
[V:3] z4E4 | 
[V:4] z8 | 
[V:1] A4z4 | 
[V:2] A4z4 | 
[V:3] c3BA2G2 | 
[V:4] A,,4F,3E, | 
[V:1] z8 | 
[V:2] z8 | 
[V:3] F2E2DEFE | 
[V:4] D,2C,2B,,2A,,2- | 
[V:1] z8 | 
[V:2] z8 | 
[V:3] FGA4G2 | 
[V:4] A,,G,,C,2B,,4 | 
[V:1] z8 | 
[V:2] z2A2A2A2 | 
[V:3] AGFEF2E2 | 
[V:4] A,,4z2A,,2 | 
[V:1] z4z2E2 | 
[V:2] AGABc2BA | 
[V:3] z2E2E2E2 | 
[V:4] A,,2A,,2A,,G,,A,,B,, | 
[V:1] E2E2EDEF | 
[V:2] G4z4 | 
[V:3] EDEFG2G2 | 
[V:4] C,8 | 
[V:1] G2A2G2F2- | 
[V:2] z8 | 
[V:3] c4B2A2- | 
[V:4] z8 | 
[V:1] FEE4D2 | 
[V:2] z4A4 | 
[V:3] AGFEF4 | 
[V:4] z8 | 
[V:1] E8- | 
[V:2] A2A2AGAB | 
[V:3] E8 | 
[V:4] A,,4A,,2A,,2 | 
[V:1] E8 | 
[V:2] c2BAG2c2 | 
[V:3] z4z2G2 | 
[V:4] A,,G,,A,,B,,C,2C,2 | 
[V:1] z8 | 
[V:2] d4c2B2- | 
[V:3] A4G2F2- | 
[V:4] F,4E,2D,2- | 
[V:1] z8 | 
[V:2] B2A4^G2 | 
[V:3] F2E4D2 | 
[V:4] D,C,B,,A,,B,,4 | 
[V:1] z2C2F2F2 | 
[V:2] A2A2A2B2 | 
[V:3] E4z4 | 
[V:4] A,,2A,,2D,2D,2 | 
[V:1] EDEFG2zG | 
[V:2] c2BAG2e2 | 
[V:3] z4C4 | 
[V:4] C,8 | 
[V:1] A2A2GFGA | 
[V:2] c2d2e3e | 
[V:3] F2F2EDEF | 
[V:4] z8 | 
[V:1] B2c4BA | 
[V:2] e4z2c2 | 
[V:3] G2zGA2A2 | 
[V:4] z2C,2F,2F,2 | 
[V:1] B8 | 
[V:2] e2e2d4 | 
[V:3] GFGAB2G2 | 
[V:4] E,D,E,F,G,2G,2 | 
[V:1] z2E2A2A2 | 
[V:2] z2A2c2d2 | 
[V:3] c4A4 | 
[V:4] A,3G,F,2F,2 | 
[V:1] G3AB2c2 | 
[V:2] e6e2 | 
[V:3] B2c2B2e2- | 
[V:4] E,8- | 
[V:1] B2A4^G2 | 
[V:2] e8 | 
[V:3] e2dcB4 | 
[V:4] E,8 | 
[V:1] A2E2F2F2 | 
[V:2] z2c2A2B2 | 
[V:3] z8 | 
[V:4] z2A,,2D,2D,2 | 
[V:1] E4z2G2 | 
[V:2] c3B/A/G2e2 | 
[V:3] z4E4 | 
[V:4] C,8 | 
[V:1] A2A2GFGA | 
[V:2] c2d2e3e | 
[V:3] F2F2EDEF | 
[V:4] z8 | 
[V:1] B2c4BA | 
[V:2] e4z2c2 | 
[V:3] G2zGA2A2 | 
[V:4] E,4F,2F,2 | 
[V:1] B8 | 
[V:2] e2e2d4 | 
[V:3] GFGAB2G2 | 
[V:4] E,D,E,F,G,2G,2 | 
[V:1] z2E2A2A2 | 
[V:2] z2A2A4 | 
[V:3] c3Bc2d2 | 
[V:4] A,3G,F,2F,2 | 
[V:1] G3AB2c2 | 
[V:2] c4B2e2 | 
[V:3] e2E2G2A2 | 
[V:4] E,4z2C,2 | 
[V:1] B2A4^G2 | 
[V:2] e2f2e3d | 
[V:3] B2c2B4 | 
[V:4] G,2A,2E,2E,2 | 
[V:1] A8- | 
[V:2] c4z2c2 | 
[V:3] A8- | 
[V:4] A,,4z2A,,2 | 
[V:1] A8- | 
[V:2] f3ed2d2 | 
[V:3] A8- | 
[V:4] D,3C,D,2D,2 | 
[V:1] A8 |]  
[V:2] c8 |]  
[V:3] A8 |]  
[V:4] A,,8 |]  



